package/converter/svg/solid/file-exclamation.svg

<svg xmlns="http://www.w3.org/2000/svg" viewBox="0 0 384 512"><!-- Font Awesome Pro 6.0.0-alpha2 by @fontawesome - https://fontawesome.com License - https://fontawesome.com/license (Commercial License) --><path d="M224 128V0H48C21.492 0 0 21.492 0 48V464C0 490.508 21.492 512 48 512H336C362.508 512 384 490.508 384 464V160H256C238.328 160 224 145.672 224 128ZM168 216C168 202.75 178.75 192 192 192S216 202.75 216 216V328C216 341.25 205.25 352 192 352S168 341.25 168 328V216ZM224 416C224 433.672 209.672 448 192 448S160 433.672 160 416V415.998C160 415.82 160.102 415.674 160.102 415.498C160.375 398.947 173.246 385.814 189.523 384.5C190.383 384.43 191.125 383.998 192 383.998S193.617 384.43 194.477 384.5C210.754 385.814 223.625 398.947 223.898 415.498C223.898 415.674 224 415.82 224 415.998V416ZM256 0V128H384L256 0Z"/></svg>

<svg xmlns="http://www.w3.org/2000/svg" viewBox="0 0 384 512"><!--! Font Awesome Pro 6.6.0 by @fontawesome - https://fontawesome.com License - https://fontawesome.com/license (Commercial License) Copyright 2024 Fonticons, Inc. --><path d="M64 0C28.7 0 0 28.7 0 64L0 448c0 35.3 28.7 64 64 64l256 0c35.3 0 64-28.7 64-64l0-288-128 0c-17.7 0-32-14.3-32-32L224 0 64 0zM256 0l0 128 128 0L256 0zM192 192c13.3 0 24 10.7 24 24l0 112c0 13.3-10.7 24-24 24s-24-10.7-24-24l0-112c0-13.3 10.7-24 24-24zM160 416a32 32 0 1 1 64 0 32 32 0 1 1 -64 0z"/></svg>
